X:1752894149
T:Shelder Geo
O:Trad.
R:reel
M:4/4
N:Arranged by Cam Cross ~ 7/25
S:
K:D
|:"D"A3 G FGAB|"C"=c2 cA "G"BGGB|"D"ABAG FDFG|1 "G"Addc "D"d2 dB:|2 "G"Addc "D"d2 dB||
|:"C"=cdef gagf|e=cgc ecgc|=cdef gage|"D"^fdad fdad|
"C"=cdeg gagf|e=cgc ecce|"C"a^fge fde^c|"D"Add^c d4:|

%abc-2.1
%%titlefont      Times-Bold 24
%%subtitlefont   Times-Italics 18
%%composerfont   Times-Italics
%%gchordfont     Courier
%%partsfont      Helvetica
%%textfont       Courier
